neru-light-classic/32x32/apps/preferences-desktop-notification-bell.svg

<?xml version="1.0" encoding="UTF-8" standalone="no"?>
<svg
   xmlns:dc="http://purl.org/dc/elements/1.1/"
   xmlns:cc="http://creativecommons.org/ns#"
   xmlns:rdf="http://www.w3.org/1999/02/22-rdf-syntax-ns#"
   xmlns:svg="http://www.w3.org/2000/svg"
   xmlns="http://www.w3.org/2000/svg"
   xmlns:sodipodi="http://sodipodi.sourceforge.net/DTD/sodipodi-0.dtd"
   xmlns:inkscape="http://www.inkscape.org/namespaces/inkscape"
   height="32"
   viewBox="0 0 32 32"
   width="32"
   version="1.1"
   id="svg12"
   sodipodi:docname="preferences-desktop-notification-bell.svg"
   inkscape:version="0.92.1 r">
  <metadata
     id="metadata18">
    <rdf:RDF>
      <cc:Work
         rdf:about="">
        <dc:format>image/svg+xml</dc:format>
        <dc:type
           rdf:resource="http://purl.org/dc/dcmitype/StillImage" />
      </cc:Work>
    </rdf:RDF>
  </metadata>
  <defs
     id="defs16" />
  <sodipodi:namedview
     pagecolor="#ffffff"
     bordercolor="#666666"
     borderopacity="1"
     objecttolerance="10"
     gridtolerance="10"
     guidetolerance="10"
     inkscape:pageopacity="0"
     inkscape:pageshadow="2"
     inkscape:window-width="1680"
     inkscape:window-height="963"
     id="namedview14"
     showgrid="false"
     inkscape:zoom="10.429825"
     inkscape:cx="18.754235"
     inkscape:cy="22.53325"
     inkscape:window-x="0"
     inkscape:window-y="0"
     inkscape:window-maximized="1"
     inkscape:current-layer="svg12" />
  <rect
     style="opacity:1;fill:#fcc733;fill-opacity:1;fill-rule:evenodd;stroke:none;stroke-width:1.03534329;stroke-linecap:round;stroke-linejoin:bevel;stroke-miterlimit:4;stroke-dasharray:none;stroke-dashoffset:0;stroke-opacity:1"
     id="rect4497-3"
     width="28.203388"
     height="28.203388"
     x="1.8983059"
     y="1.8983059"
     ry="5.575182" />
  <path
     style="fill:#ffffff;stroke-width:1"
     d="m 17.628182,22.072979 c 3.890574,-1.413709 7.094569,-2.589755 7.11999,-2.613434 0.05774,-0.05378 -0.293066,-0.996431 -0.506074,-1.359901 C 23.89418,17.505969 23.560377,17.237111 22.88675,17.007995 22.23721,16.787073 21.738847,16.422343 21.386229,15.90983 21.197503,15.635526 20.729609,14.554208 20.1783,13.118281 19.478756,11.296254 18.982989,10.494091 18.116041,9.781481 17.165377,9.000062 16.28919,8.691614 14.848006,8.631026 L 13.983627,8.594687 13.781936,8.1826961 C 13.537802,7.6839967 13.476832,7.6093214 13.197428,7.46678 c -0.742353,-0.378719 -1.698363,0.2773538 -1.5776,1.082647 0.02072,0.138247 0.07674,0.344808 0.124461,0.459027 0.125319,0.299926 0.06543,0.43372 -0.339216,0.757862 -1.4637732,1.17255 -2.1383538,2.638896 -2.0410408,4.436653 0.04647,0.858503 0.09524,1.052626 0.7821738,3.113214 0.682657,2.047774 0.718212,2.197525 0.687554,2.895845 -0.02515,0.572653 -0.07577,0.715161 -0.580343,1.633491 -0.179193,0.326135 -0.188307,0.372205 -0.188064,0.950819 2.32e-4,0.559695 0.01794,0.657365 0.222364,1.22755 0.12216,0.34071 0.232142,0.619473 0.244404,0.619473 0.01228,0 3.20549,-1.156672 7.096061,-2.570382 z m 0.737671,2.3083 c 0.620752,-0.170931 1.257086,-0.714997 1.580614,-1.351429 0.188255,-0.370327 0.303524,-0.74913 0.227957,-0.74913 -0.07864,0 -4.224317,1.507335 -4.278114,1.555489 -0.061,0.0546 0.441654,0.375457 0.769357,0.491091 0.544618,0.192175 1.130733,0.210784 1.700186,0.05398 z"
     id="path4495"
     inkscape:connector-curvature="0"
     sodipodi:nodetypes="scsscssscscscssssscsssssscss" />
</svg>

<svg xmlns="http://www.w3.org/2000/svg" height="32" width="32"><rect width="28.203" height="28.203" x="1.898" y="1.898" ry="5.575" fill="#fcc733" fill-rule="evenodd"/><path d="M17.628 22.073c3.89-1.414 7.095-2.59 7.12-2.613.058-.054-.293-.997-.506-1.36-.348-.594-.682-.863-1.355-1.092-.65-.22-1.148-.586-1.5-1.098-.19-.274-.657-1.356-1.209-2.792-.7-1.822-1.195-2.624-2.062-3.337-.95-.78-1.827-1.09-3.268-1.15l-.864-.036-.202-.412c-.244-.499-.305-.574-.585-.716-.742-.379-1.698.277-1.577 1.082.02.139.077.345.124.46.126.3.066.433-.339.757-1.464 1.173-2.138 2.64-2.041 4.437.047.858.095 1.053.782 3.113.683 2.048.718 2.198.688 2.896-.025.573-.076.715-.58 1.634-.18.326-.189.372-.189.95 0 .56.018.658.223 1.228.122.34.232.62.244.62.012 0 3.206-1.157 7.096-2.571zm.738 2.308c.62-.17 1.257-.715 1.58-1.351.189-.37.304-.75.228-.75-.078 0-4.224 1.508-4.278 1.556-.06.055.442.376.77.491.544.192 1.13.211 1.7.054z" fill="#fff"/></svg>
